X:654
M:C|
L:1/8
K:C
f|ecgc aceg|fdad bdfa|1 ecgc acec|GcBd eccf:|2 ecgc ecGE|G,CB,D ECC||

